img/partners/mts.svg

<svg width="269" height="81" viewBox="0 0 269 81" fill="none" xmlns="http://www.w3.org/2000/svg">
<path d="M82.4898 20.5C80.1146 20.5 77.2644 23.361 74.954 28.1653C72.4925 33.1856 71.0674 39.3394 71.0674 44.7105C71.0674 52.5918 74.587 60.5 82.4898 60.5C90.3926 60.5 93.9122 52.5918 93.9122 44.7105C93.9122 39.3394 92.4871 33.1586 90.0255 28.1923C87.7152 23.361 84.865 20.5 82.4898 20.5ZM144.179 32.2679H152.169V58.3138H160.741V32.2679H168.73V22.6323H144.179V32.2679ZM187.04 32.2679H199.607V22.6323H187.04C175.488 22.6323 169.335 29.8117 169.335 40.5C169.335 51.1883 175.51 58.3677 187.04 58.3677H199.607V48.7051H187.04C181.685 48.7051 178.209 46.303 178.209 40.5C178.209 34.697 181.685 32.2679 187.04 32.2679ZM126.754 22.6592L122.177 43.9818L117.599 22.6592H102.463V58.3947H111.035V29.2989L117.275 58.3408H127.1L133.34 29.2719V58.3408H141.912V22.6592H126.754Z" fill="#CB333D"/>
</svg>

<svg width="269" height="81" fill="none" xmlns="http://www.w3.org/2000/svg"><path d="M82.49 20.5c-2.375 0-5.226 2.861-7.536 7.665-2.461 5.02-3.887 11.174-3.887 16.546 0 7.88 3.52 15.789 11.423 15.789 7.903 0 11.422-7.908 11.422-15.79 0-5.37-1.425-11.551-3.887-16.518-2.31-4.831-5.16-7.692-7.535-7.692zm61.689 11.768h7.99v26.046h8.572V32.268h7.989v-9.636h-24.551v9.636zm42.861 0h12.567v-9.636H187.04c-11.552 0-17.705 7.18-17.705 17.868 0 10.688 6.175 17.868 17.705 17.868h12.567v-9.663H187.04c-5.355 0-8.831-2.402-8.831-8.205s3.476-8.232 8.831-8.232zm-60.286-9.609l-4.577 21.323-4.578-21.323h-15.136v35.736h8.572V29.299l6.24 29.042h9.825l6.24-29.07v29.07h8.572V22.659h-15.158z" fill="#CB333D"/></svg>
